X:1
T:No me mueve
T:Domenico Mazzocchi
T:Source : Musice sacre e morali---Roma---L.Grignani---1640. Editor : André Vierendeels ( 23/08/18) Notes : Original clefs : C1, F4 Text by San Francesco Xaviero "Al Cristo crucificado" 
T:Prima parte
T:No me mueve
T:Sonetto
T:©
T:©
T:©
T:©
T:©
T:©
C:Domenico Mazzocchi
Z:©
%%score 1 { 2 | 3 }
L:1/8
Q:1/4=120
M:4/4
K:F
V:1 treble nm="Soprano" snm="S"
V:2 treble nm="MusicXML Part"
V:3 bass 
V:1
 z2 AA A2 Ad | c4 B2 BA | A4 A2 z c | c>c de fe Ted/c/ | =B3 c cd/e/ f/c/d/A/ |"^b" B3 F G2 G2 | %6
w: No me mue- ve mi|Dios pa- ra que-|rer- te, el|Cie- lo, que me tie- * * * *|* nes pro- * * * * * *|* me- ti- do,|
 z2 cd B2 BA | B3 B B3 A | A4 A4 | z A2 A/A/ A3 B | c2 c2 z2 e2- | e2 fg ^c2 d2- | %12
w: ni me mue- v'el In-|fier no tan te-|mi- do,|pa- ra dex- ar por|es- so de|_ of- fen- der- *|
 d2 ^cd/e/ !fermata!d4 ||"^Seconda parte" z2 d4 dd | d3 c d2 A2- | AAAB c2 cc | c2 cd B3 A | %17
w: * * * * te.|Mue- ves me|tu Se- ñor, mue-|* ve- me el ver- te Cla-|va- do en u- na|
 A4 z cde | fe Ted/c/ =B>c d/A/B/E/ | F>G _A/G/TG/F/- .G4 | _e2 cc B3 A | B2 B2 z B2 A | %22
w: Crus, y'es- car- me-|çi- * * * * * * * * * *|* * * * * do, _|mue- ve m'el ver- tu|cuer- po tan he-|
 A2 A2 z f2 d | d2 ^c=B c2 c2 | z2 e4 fg | Tf3 e- !fermata!d4 ||"^Terza parte" z2 f4 dd | %27
w: ci- do, mue- ve-|me tus a- fren- tas,|y tu _|muer- te. _|Mue- ve- me'al-|
 d>^c d3 AAB | c2 cc c2 cd | B3 A A2 A2 | z2 Ac dcBA | BAGF G4 | F4 z2 c2 | c2 cc c2 c=B | %34
w: fin mio Dios y'en tal ma-|ne- ra, que si- no hu-|bie- ra Cie- lo|yo te a- * * *|ma- * * * *|ra, y|si- no hu- bie- ra In-|
 c (B/A/ G2) c2 B2 | ATG GF/E/ F/E/D/E/ F/G/A/=B/ | ^c/A/=B/c/ d/e/c/d/ Bd/c/ B/A/G/F/ | %37
w: fier- no _ _ te te-|mie- * * * * * * * * * * * *||
 E4 !fermata!D4 ||"^Quarta et ultima parte" z2 A2 d>d ef | d4 z dc=B | c2 A2 z e c>d | %41
w: * ra.|No tie- nes que me|dar por- que te|quie- ra, por que si|
 B2 BA A2 A2 | z A/B/ c/A/B/c/ d/F/G/A/ B/c/d/e/ | f2 FG G4 | F4 z2 c2 | c3 c d3 e | e2 e2 c2 B2 | %47
w: quan- to es- pe- ro|no _ _ _ _ _ _ _ _ _ _ _ _ _|_ es- pe- ra-|ra, lo|mis- mo que te|quie- ro, te qui-|
 A/G/A/B/ c/A/B/c/ d/D/E/F/ G/F/G/A/ | B/c/d/e/ d/c/B/A/ B/c/d/c/ B/A/G/F/ | E4 !fermata!D4 |] %50
w: sie- * * * * * * * * * * * * * * *||* ra.|
V:2
 z8 | z8 | z8 | z8 |"^BC" z8 | z8 | z8 | z8 | z8 | z8 | z8 | z8 | z8 || z8 | z8 | z8 | z8 | z8 | %18
 z8 | z8 | z8 | z8 | z8 | z8 | z8 | z8 || z8 | z8 | z8 | z8 | z8 | z8 | z8 | z8 | z8 | z8 | z8 | %37
 z8 || z8 | z8 | z8 | z8 | z8 | z8 | z8 | z8 | z8 | z8 | z8 | z8 |] %50
V:3
 D,8 | A,,4 D,2 E,2 | F,8 | E,4 D,4 | D,8- | D,4 C,4 | C,8 | G,,8 | D,8 | D,8 | A,,8 | G,,8 | %12
 A,,4 !fermata!D,4 || D,8 | D,8 | D,4 A,,4- | A,,4 D,2 E,2 | F,4 E,4 | D,8 | D,4 C,4 | C,8 | G,,8 | %22
 D,8 | D,4 A,,4- | A,,4 G,,4 | A,,4 !fermata!D,4 || D,8 | D,8 | A,,8 | D,2 E,2 F,4 | F,4 B,,4 | %31
 D,4 C,4 | F,,8 | F,2 E,2 D,2 G,2 | C,2 B,,2 A,,2 G,,2 | F,,2 ^C,2 D,4 | A,,2 ^F,,2 G,,4 | %37
 A,,4 !fermata!D,4 || D,8 | D,8 | A,,8 | D,2 E,2 F,4 | F,4 D,4 | D,4 C,4 | F,,8 | F,2 E,2 D,2 G,2 | %46
 C,2 B,,2 A,,2 G,,2 | F,2 E,2 D,2 C,2 | B,,2 A,,2 G,,4 | A,,4 !fermata!D,4 |] %50

